svg/fluentui-system-icons/ic_fluent_tap_double_32_regular.svg

<svg width="32" height="32" viewBox="0 0 32 32" fill="none" xmlns="http://www.w3.org/2000/svg">
<path d="M8 12C8 7.58172 11.5817 4 16 4C20.4183 4 24 7.58172 24 12C24 12.895 23.853 13.7556 23.5819 14.5591C24.2494 14.758 24.8537 15.0754 25.377 15.4824C25.7798 14.3979 26 13.2247 26 12C26 6.47715 21.5228 2 16 2C10.4772 2 6 6.47715 6 12C6 13.7917 6.47122 15.4734 7.29648 16.9278C7.79567 16.4738 8.37355 16.1164 8.99747 15.8714C8.36188 14.7243 8 13.4044 8 12ZM22.4995 12C22.4995 12.7891 22.3589 13.5454 22.1014 14.2452L20.5033 13.936V11.999C20.5033 9.51428 18.4886 7.5 16.0033 7.5C15.9323 7.5 15.8617 7.50165 15.7915 7.5049C13.403 7.61367 11.4999 9.58459 11.4999 12C11.4999 12.0594 11.501 12.1186 11.5033 12.1775V15.5128C11.1762 15.4828 10.8501 15.4828 10.5288 15.511C9.8776 14.4984 9.49986 13.2933 9.49986 12C9.49986 8.41025 12.4099 5.50017 15.9997 5.50017C19.5895 5.50017 22.4995 8.41025 22.4995 12ZM15.0023 12C15.0023 11.4477 15.45 11 16.0023 11C16.5546 11 17.0023 11.4477 17.0023 12V16C17.0023 16.479 17.342 16.8908 17.8123 16.9818L22.3817 17.866C23.5258 18.0874 24.2391 19.2362 23.9301 20.3599L22.4106 25.8853C22.2992 26.2905 21.9464 26.5828 21.5276 26.6169L16.7686 27.0044C16.7686 27.0044 16.762 27.0022 16.7538 26.9965C16.7349 26.9834 16.711 26.9567 16.6968 26.9176C15.9152 24.7652 14.0172 22.1829 9.10557 20.3633C9.46891 19.2652 10.6976 18.696 11.7784 19.1502L13.6149 19.9219C13.9236 20.0516 14.2768 20.0182 14.5557 19.8329C14.8347 19.6475 15.0023 19.3349 15.0023 19V12ZM16.0023 9C14.3454 9 13.0023 10.3431 13.0023 12V17.4951L12.5533 17.3064C10.3222 16.3688 7.77606 17.6117 7.14293 19.9475L7.05279 20.2801C6.84144 21.0598 7.28534 21.8419 8.01589 22.0968C12.7552 23.7505 14.2434 26.0211 14.817 27.6003C15.1161 28.424 15.933 29.0791 16.9304 28.9978L21.6899 28.6103C22.9463 28.508 24.0048 27.6311 24.339 26.4157L25.8585 20.8902C26.4766 18.6429 25.05 16.3453 22.7617 15.9024L19.0023 15.175V12C19.0023 10.3431 17.6591 9 16.0023 9Z" fill="#212121"/>
</svg>

<svg xmlns="http://www.w3.org/2000/svg" width="32" height="32"><path d="M8 12a8 8 0 1 1 15.582 2.56 5.458 5.458 0 0 1 1.795.922A9.982 9.982 0 0 0 26 12c0-5.523-4.477-10-10-10S6 6.477 6 12c0 1.792.471 3.473 1.296 4.928a5.537 5.537 0 0 1 1.701-1.057A7.964 7.964 0 0 1 8 12Zm14.5 0c0 .79-.141 1.545-.399 2.245l-1.598-.309v-1.937a4.5 4.5 0 0 0-4.712-4.494 4.5 4.5 0 0 0-4.288 4.673v3.335a5.45 5.45 0 0 0-.974-.002A6.5 6.5 0 1 1 22.499 12Zm-7.498 0a1 1 0 1 1 2 0v4a1 1 0 0 0 .81.982l4.57.884a2 2 0 0 1 1.548 2.494l-1.52 5.525a1 1 0 0 1-.882.732l-4.76.387s-.006-.002-.014-.008a.166.166 0 0 1-.057-.078c-.782-2.153-2.68-4.735-7.591-6.555a2 2 0 0 1 2.672-1.213l1.837.772A1 1 0 0 0 15.002 19v-7Zm1-3a3 3 0 0 0-3 3v5.495l-.449-.189a4 4 0 0 0-5.41 2.642l-.09.332a1.51 1.51 0 0 0 .963 1.817c4.74 1.653 6.227 3.924 6.801 5.503.3.824 1.116 1.48 2.113 1.398l4.76-.388a3 3 0 0 0 2.649-2.194l1.52-5.526a4 4 0 0 0-3.097-4.988l-3.76-.727V12a3 3 0 0 0-3-3Z"/></svg>
